dist/assets/symbols/alva.svg

<svg viewBox="0 0 100 100" fill="none" xmlns="http://www.w3.org/2000/svg">
<path d="M63.4873 10.8476C36.2436 5.53632 23.2264 26.8871 22.6856 27.8013C21.2584 30.2038 20.1392 32.765 19.3505 35.4018C18.5844 37.9705 18.1412 40.6148 18.021 43.2516C17.9084 45.8203 18.1112 48.3815 18.6219 50.8671C19.1177 53.2848 19.9064 55.6193 20.958 57.8027C21.9795 59.9257 23.2564 61.9127 24.7437 63.6957C26.1934 65.4334 27.8384 66.9747 29.6411 68.2817C31.3912 69.551 33.2841 70.6011 35.2671 71.3869C37.1975 72.1575 39.1955 72.6788 41.2236 72.9508C42.2677 73.0868 43.3193 73.1548 44.3634 73.1548C45.2873 73.1548 46.2111 73.1019 47.1275 72.9961C49.0204 72.7695 50.8682 72.3162 52.6259 71.6437C54.3384 70.9864 55.9534 70.1252 57.4256 69.0901C58.8603 68.0777 60.1597 66.8916 61.2865 65.577C62.3831 64.2926 63.3145 62.8873 64.0581 61.399C64.7792 59.9484 65.32 58.4223 65.6656 56.8583C65.9961 55.3398 66.1463 53.791 66.0937 52.2573C66.0486 50.7614 65.8233 49.2881 65.4177 47.8753C65.0271 46.4927 64.4713 45.1781 63.7652 43.9542C63.0817 42.7605 62.2554 41.665 61.3165 40.6979C60.4001 39.7535 59.3786 38.93 58.2744 38.2501C57.2003 37.5852 56.051 37.0639 54.8718 36.6861C53.715 36.3235 52.5282 36.1044 51.3414 36.0364C50.1847 35.9684 49.0279 36.0515 47.9012 36.2706C46.8045 36.4822 45.7454 36.8297 44.7539 37.2981C43.785 37.7514 42.8836 38.3256 42.0649 38.998C41.2687 39.6553 40.5626 40.4033 39.9617 41.2192C39.3758 42.0201 38.8876 42.8813 38.5195 43.788C38.159 44.6719 37.9111 45.5861 37.7759 46.5154C37.6482 47.422 37.6257 48.3362 37.7233 49.2352C37.8135 50.1116 38.0087 50.9653 38.3092 51.7813C38.5946 52.5746 38.9852 53.3225 39.4509 54.0101C39.9091 54.6825 40.4424 55.2869 41.0358 55.8157C41.6142 56.3295 42.2527 56.7752 42.9362 57.1228C43.5972 57.4703 44.2958 57.7272 45.0093 57.8934C45.7079 58.0596 46.4215 58.1352 47.1275 58.1201C47.8186 58.1049 48.5021 58.0067 49.1556 57.833C49.7941 57.6592 50.41 57.4023 50.9734 57.085C51.5292 56.7677 52.04 56.3899 52.4982 55.9517C52.9413 55.5286 53.3319 55.0527 53.6549 54.5389C53.9704 54.0327 54.2258 53.4963 54.3985 52.9448C54.5713 52.4008 54.684 51.8417 54.7215 51.2827C54.7591 50.6934 54.729 50.1418 54.6314 49.6356C54.0455 46.742 51.5142 46.1981 50.2598 46.3114C50.2448 46.3114 50.2297 46.3189 50.2147 46.3265C50.0795 46.3416 49.9368 46.3567 49.8091 46.3869C49.5387 46.4474 49.2833 46.5305 49.0429 46.6514C48.8101 46.7647 48.5923 46.9158 48.3894 47.082C48.1941 47.2482 48.0214 47.4371 47.8787 47.6411C47.736 47.8451 47.6158 48.0642 47.5331 48.2908C47.3829 48.6761 47.5707 49.1143 47.9613 49.2654C48.3519 49.4165 48.78 49.2277 48.9378 48.8348C48.9828 48.7215 49.0429 48.6157 49.1105 48.5175C49.1856 48.4117 49.2758 48.3135 49.3734 48.2304C49.4786 48.1397 49.5913 48.0642 49.719 48.0037C49.8467 47.9433 49.9894 47.8904 50.1321 47.8602C50.2823 47.83 50.44 47.8148 50.5978 47.8224C50.763 47.8224 50.9283 47.8526 51.086 47.9055C51.2513 47.9508 51.4165 48.0264 51.5668 48.1171C51.7245 48.2077 51.8747 48.3286 52.0099 48.457C52.1451 48.593 52.2728 48.7517 52.3705 48.9179C52.4756 49.0992 52.5658 49.2881 52.6259 49.4921C52.6859 49.7036 52.7235 49.9227 52.7385 50.1418C52.7535 50.3685 52.7385 50.6103 52.6859 50.8369C52.6409 51.0787 52.5583 51.3129 52.4531 51.5395C52.3404 51.7737 52.2052 51.9928 52.0325 52.1968C51.8597 52.4084 51.6569 52.5972 51.4315 52.7635C51.1987 52.9297 50.9508 53.0732 50.6804 53.179C50.4025 53.2923 50.102 53.3679 49.8016 53.4132C49.4861 53.4585 49.1631 53.4585 48.8476 53.4283C48.5171 53.3905 48.1866 53.3074 47.8712 53.1866C47.5407 53.0657 47.2252 52.8995 46.9322 52.6879C46.6318 52.4764 46.3464 52.2271 46.106 51.94C45.8506 51.6453 45.6328 51.3204 45.4525 50.9653C45.2647 50.6027 45.1295 50.2098 45.0394 49.8019C44.9417 49.3788 44.9042 48.9481 44.9117 48.5099C44.9267 48.0566 44.9943 47.6033 45.1145 47.1576C45.2422 46.6967 45.43 46.2509 45.6628 45.8354C45.9107 45.4048 46.2111 44.9968 46.5642 44.6266C46.9247 44.2488 47.3379 43.9164 47.7885 43.6369C48.2542 43.3498 48.7575 43.1156 49.2908 42.9418C49.8391 42.768 50.41 42.6622 50.9959 42.6245C51.5968 42.5867 52.2052 42.6245 52.8061 42.7378C53.4296 42.8587 54.038 43.0551 54.6239 43.3271C55.2248 43.6066 55.7956 43.9617 56.3139 44.3924C56.8547 44.8306 57.343 45.3443 57.7636 45.911C58.1993 46.4927 58.5673 47.1424 58.8528 47.83C59.1457 48.5326 59.356 49.2881 59.4687 50.0587C59.5889 50.852 59.6039 51.668 59.5288 52.4839C59.4462 53.3225 59.2584 54.1536 58.9654 54.9545C58.665 55.7855 58.2669 56.5788 57.7636 57.3192C57.2529 58.0823 56.6369 58.7849 55.9384 59.412C55.2248 60.0542 54.4211 60.6133 53.5573 61.0666C52.6709 61.535 51.7095 61.8976 50.718 62.1318C49.6964 62.3811 48.6373 62.4945 47.5632 62.4794C46.459 62.4643 45.3549 62.3132 44.2732 62.0185C43.1615 61.7239 42.0724 61.2781 41.0508 60.7039C39.9993 60.1146 39.0078 59.3893 38.1139 58.5431C37.1975 57.6743 36.3788 56.677 35.6877 55.5891C34.9742 54.4709 34.4033 53.2545 33.9751 51.9702C33.5395 50.648 33.2616 49.2654 33.1639 47.8602C33.0588 46.4096 33.1339 44.9363 33.3817 43.4782C33.6446 41.9823 34.0953 40.5015 34.7188 39.0887C35.3647 37.6381 36.1985 36.2555 37.1975 34.9862C38.2191 33.6792 39.4209 32.493 40.7504 31.4655C42.125 30.4078 43.6348 29.5088 45.2497 28.8137C46.9097 28.0884 48.6749 27.5746 50.4851 27.28C52.3554 26.9778 54.2708 26.9022 56.1862 27.076C58.1542 27.2498 60.1222 27.6729 62.015 28.3377C63.968 29.0177 65.8458 29.9545 67.6035 31.118C69.4137 32.3117 71.0813 33.7472 72.561 35.3715C74.0858 37.0488 75.4153 38.93 76.5045 40.9623C77.6237 43.0551 78.495 45.299 79.0809 47.6411C79.6818 50.0512 79.9897 52.5519 79.9897 55.0753C79.9897 57.6667 79.6592 60.2808 79.0208 62.842C78.3598 65.4712 77.3608 68.0399 76.0613 70.4651C74.7243 72.9583 73.0567 75.3004 71.1188 77.4234C69.1283 79.6069 66.8524 81.5485 64.3436 83.2031C61.7672 84.903 58.9654 86.2856 56.006 87.3206C52.9639 88.3784 49.7715 89.0659 46.5116 89.3454C43.1615 89.6325 39.7514 89.5041 36.3788 88.9526C32.9085 88.3859 29.4909 87.3735 26.2159 85.9456C22.8508 84.4799 19.6435 82.576 16.684 80.2868C6.03289 72.0139 0.294212 58.1729 1.71386 44.1733C1.75893 43.7577 1.45847 43.3875 1.04535 43.3422C0.632225 43.312 0.264168 43.5991 0.2191 44.0146C-1.24561 58.5356 4.71089 72.8903 15.7676 81.4805C18.8247 83.8453 22.1372 85.8096 25.6225 87.3282C29.0101 88.8015 32.5555 89.8516 36.1459 90.4409C38.4369 90.8187 40.7429 91 43.0338 91C44.2432 91 45.445 90.9471 46.6468 90.8413C50.0269 90.5467 53.3469 89.8365 56.5017 88.741C59.5739 87.6682 62.4958 86.2252 65.1698 84.4573C67.7763 82.7347 70.1499 80.7099 72.2305 78.4358C74.2511 76.2222 75.9862 73.7743 77.3833 71.1678C78.7429 68.6292 79.7869 65.9472 80.478 63.1971C81.154 60.515 81.492 57.7801 81.492 55.0602C81.492 52.4084 81.169 49.7867 80.5381 47.2558C79.9221 44.7928 79.0057 42.428 77.8265 40.2295C76.6772 38.0838 75.2801 36.1044 73.6652 34.3365C72.0953 32.6139 70.3376 31.1029 68.4222 29.8412C66.5594 28.6097 64.5689 27.62 62.4958 26.8947C60.4827 26.1921 58.3946 25.7387 56.2989 25.5574C54.2633 25.3761 52.2202 25.4517 50.2297 25.7765C48.2918 26.0938 46.414 26.6454 44.6338 27.416C42.9061 28.1639 41.2837 29.1234 39.8115 30.2567C38.3768 31.3673 37.0924 32.6366 35.9957 34.0418C34.9216 35.4093 34.0277 36.8977 33.3292 38.4616C32.6531 39.9877 32.1649 41.5819 31.8795 43.2062C31.6016 44.7852 31.5264 46.3869 31.6391 47.9584C31.7518 49.4921 32.0522 50.9956 32.5255 52.4386C32.9912 53.8363 33.6221 55.1736 34.3958 56.3975C35.1544 57.5912 36.0483 58.6791 37.0623 59.6386C38.0463 60.5679 39.1355 61.3688 40.2997 62.0185C41.4339 62.6531 42.6357 63.1442 43.8676 63.4691C45.0694 63.794 46.3013 63.9602 47.5256 63.9753C48.7124 63.9904 49.9067 63.862 51.0485 63.5824C52.1677 63.3104 53.2343 62.91 54.2333 62.3811C55.2098 61.8674 56.1111 61.2403 56.9223 60.515C57.711 59.8048 58.4096 59.004 58.988 58.1427C59.5588 57.2965 60.017 56.3899 60.355 55.4455C60.6855 54.5238 60.9034 53.5719 61.001 52.6048C61.0912 51.668 61.0686 50.7311 60.9334 49.8094C60.7982 48.9179 60.5578 48.0415 60.2198 47.2256C59.8893 46.4247 59.4612 45.6692 58.9504 44.9892C58.4547 44.3244 57.8763 43.72 57.2453 43.1987C56.6219 42.6925 55.9459 42.2694 55.2398 41.937C54.5412 41.6121 53.8126 41.3779 53.0765 41.2419C52.3554 41.1059 51.6193 41.0606 50.8907 41.1059C50.1847 41.1512 49.4861 41.2797 48.8251 41.4912C48.1791 41.7027 47.5557 41.9898 46.9923 42.3449C46.4365 42.6925 45.9257 43.108 45.4825 43.5764C45.0469 44.0297 44.6713 44.5359 44.3558 45.0799C44.0554 45.6088 43.8225 46.1678 43.6648 46.7496C43.5071 47.3162 43.4244 47.8904 43.4094 48.4721C43.3944 49.0388 43.447 49.5979 43.5747 50.1418C43.6948 50.6707 43.8751 51.1844 44.1155 51.6604C44.3483 52.1288 44.6413 52.5595 44.9793 52.9448C45.3098 53.3225 45.6778 53.6625 46.0835 53.9421C46.4816 54.2216 46.9022 54.4407 47.3529 54.6069C47.7885 54.7731 48.2392 54.8789 48.6899 54.9318C49.1331 54.9771 49.5762 54.9771 50.0194 54.9167C50.4476 54.8562 50.8607 54.7505 51.2513 54.5843C51.5592 54.4558 51.8522 54.2972 52.1226 54.1158C51.9273 54.3727 51.7245 54.622 51.4841 54.8487C51.1161 55.1962 50.7105 55.506 50.2598 55.7553C49.8016 56.0122 49.3058 56.2237 48.78 56.3597C48.2467 56.5033 47.6909 56.5864 47.12 56.5939C46.5341 56.6015 45.9483 56.541 45.3699 56.405C44.7765 56.269 44.1981 56.0499 43.6423 55.7629C43.0714 55.4682 42.5381 55.098 42.0499 54.6598C41.5466 54.214 41.0959 53.7003 40.7128 53.1337C40.3147 52.5444 39.9917 51.9097 39.7439 51.2373C39.4885 50.5423 39.3232 49.8094 39.2406 49.0614C39.158 48.2908 39.173 47.4975 39.2857 46.7194C39.3983 45.911 39.6162 45.1177 39.9317 44.347C40.2546 43.5613 40.6753 42.8058 41.1936 42.1032C41.7194 41.3854 42.3428 40.7281 43.0414 40.1539C43.7624 39.5571 44.5586 39.0509 45.4149 38.6505C46.2938 38.2349 47.2402 37.9252 48.2092 37.7363C49.2082 37.5399 50.2448 37.4719 51.2813 37.5323C52.3479 37.5928 53.4145 37.7892 54.4511 38.1141C55.5177 38.4465 56.5468 38.9225 57.5157 39.5193C58.5072 40.1313 59.4387 40.8792 60.2649 41.733C61.1212 42.6169 61.8723 43.6142 62.4958 44.6946C63.1342 45.8052 63.645 47.014 64.0056 48.2682C64.3736 49.5601 64.5839 50.9125 64.6215 52.2799C64.6666 53.6852 64.5314 55.1131 64.2234 56.5108C63.9079 57.9538 63.4122 59.3591 62.7437 60.7039C62.0601 62.0865 61.1963 63.386 60.1748 64.5721C59.1307 65.7961 57.9214 66.8916 56.5843 67.836C55.2173 68.803 53.7075 69.6039 52.1151 70.2158C50.4776 70.8429 48.75 71.2735 46.9773 71.4775C45.1596 71.6891 43.2967 71.6815 41.4489 71.4398C39.5486 71.1904 37.6632 70.6918 35.853 69.9741C33.9902 69.2337 32.2025 68.2439 30.55 67.0427C28.8524 65.8112 27.29 64.353 25.923 62.7136C24.5108 61.0212 23.309 59.1475 22.3325 57.1303C21.3335 55.0602 20.5899 52.8466 20.1167 50.5498C19.6285 48.1926 19.4407 45.7599 19.5458 43.312C19.6585 40.7961 20.0791 38.2803 20.8077 35.8249C21.5589 33.3014 22.633 30.8611 23.9926 28.5644C24.5108 27.688 37.0022 7.22112 63.2169 12.3208C92.1581 17.957 98.4977 43.4253 98.4977 52.7635C98.4977 53.179 98.8357 53.519 99.2489 53.519C99.662 53.519 100 53.179 100 52.7635C100 43.0778 93.4426 16.6726 63.5023 10.84L63.4873 10.8476Z" fill="currentColor"/>
</svg>

<svg xmlns="http://www.w3.org/2000/svg" fill="none" viewBox="0 0 100 100"><path fill="currentColor" d="M63.487 10.848C36.244 5.536 23.227 26.888 22.686 27.8a33.955 33.955 0 0 0-3.335 7.6 32.717 32.717 0 0 0-1.33 7.85c-.113 2.57.09 5.13.6 7.616a29.793 29.793 0 0 0 2.337 6.936 28.515 28.515 0 0 0 3.786 5.893 27.108 27.108 0 0 0 4.897 4.586 25.788 25.788 0 0 0 5.626 3.105c1.93.77 3.928 1.292 5.957 1.564a24.341 24.341 0 0 0 5.904.045c1.892-.227 3.74-.68 5.498-1.352a22.155 22.155 0 0 0 4.8-2.554 21.167 21.167 0 0 0 3.86-3.513 20.67 20.67 0 0 0 2.772-4.178 19.812 19.812 0 0 0 1.608-4.54c.33-1.52.48-3.068.428-4.602a17.83 17.83 0 0 0-.676-4.382 17.193 17.193 0 0 0-1.653-3.92 16.322 16.322 0 0 0-2.449-3.257 15.755 15.755 0 0 0-3.042-2.448 15.396 15.396 0 0 0-3.402-1.564 14.607 14.607 0 0 0-3.53-.65 13.793 13.793 0 0 0-3.44.235c-1.098.211-2.157.559-3.148 1.027a12.758 12.758 0 0 0-2.69 1.7 12.48 12.48 0 0 0-2.102 2.221c-.586.801-1.074 1.662-1.443 2.569a11.66 11.66 0 0 0-.743 2.727 11 11 0 0 0-.053 2.72c.09.877.286 1.73.586 2.546.286.794.676 1.541 1.142 2.23a9.836 9.836 0 0 0 1.585 1.805c.578.514 1.217.96 1.9 1.307.661.347 1.36.604 2.073.77a8.389 8.389 0 0 0 2.118.227 8.652 8.652 0 0 0 2.029-.287 7.778 7.778 0 0 0 3.343-1.881 7.418 7.418 0 0 0 1.156-1.413 7.069 7.069 0 0 0 1.067-3.256c.037-.59.007-1.141-.09-1.647-.587-2.894-3.118-3.438-4.372-3.325a.106.106 0 0 0-.045.016c-.136.015-.278.03-.406.06-.27.06-.526.144-.766.264-.233.114-.45.265-.654.431a2.983 2.983 0 0 0-.856 1.209.753.753 0 1 0 1.405.544 1.588 1.588 0 0 1 .781-.831c.128-.06.27-.114.413-.144.15-.03.308-.045.466-.038.165 0 .33.03.488.084.165.045.33.12.48.211.158.09.309.212.444.34.135.136.263.295.36.46.106.182.196.371.256.575.06.212.098.43.113.65.015.226 0 .468-.053.695a3.05 3.05 0 0 1-.653 1.36c-.173.211-.376.4-.602.566a3.47 3.47 0 0 1-.75.416 3.87 3.87 0 0 1-.88.234 4.034 4.034 0 0 1-.953.015 4.021 4.021 0 0 1-.977-.241 3.875 3.875 0 0 1-.939-.5c-.3-.21-.586-.46-.826-.747a4.799 4.799 0 0 1-.654-.975 4.758 4.758 0 0 1-.413-1.163 5.312 5.312 0 0 1-.127-1.292c.015-.453.082-.907.203-1.352.127-.461.315-.907.548-1.323.248-.43.548-.838.901-1.208.36-.378.774-.71 1.224-.99a6.985 6.985 0 0 1 1.503-.695 7.153 7.153 0 0 1 1.705-.318 7.3 7.3 0 0 1 1.81.114 7.865 7.865 0 0 1 3.508 1.654c.54.439 1.029.952 1.45 1.519a8.908 8.908 0 0 1 1.089 1.919c.293.703.503 1.458.616 2.229.12.793.135 1.609.06 2.425-.083.838-.27 1.67-.564 2.47a10.61 10.61 0 0 1-1.201 2.365 11.174 11.174 0 0 1-1.826 2.093 12.013 12.013 0 0 1-5.22 2.72c-1.022.25-2.08.363-3.155.347a13.19 13.19 0 0 1-3.29-.46c-1.112-.295-2.2-.74-3.222-1.315a14.812 14.812 0 0 1-2.937-2.16 15.612 15.612 0 0 1-2.426-2.955 16.305 16.305 0 0 1-1.713-3.619 16.896 16.896 0 0 1-.811-4.11 18.29 18.29 0 0 1 .218-4.382 19.08 19.08 0 0 1 1.337-4.39 19.414 19.414 0 0 1 2.478-4.102 20.16 20.16 0 0 1 3.553-3.52 21.011 21.011 0 0 1 4.5-2.652 21.862 21.862 0 0 1 5.235-1.534 22.817 22.817 0 0 1 5.701-.204c1.968.174 3.936.597 5.829 1.262 1.953.68 3.83 1.616 5.588 2.78a26.343 26.343 0 0 1 4.958 4.253 27.938 27.938 0 0 1 3.943 5.591 29.195 29.195 0 0 1 2.577 6.68c.6 2.41.909 4.91.909 7.433 0 2.592-.33 5.206-.97 7.767a33.441 33.441 0 0 1-2.959 7.623 34.61 34.61 0 0 1-4.942 6.958 35.922 35.922 0 0 1-6.775 5.78 37.783 37.783 0 0 1-8.338 4.118 39.097 39.097 0 0 1-9.494 2.024c-3.35.287-6.76.16-10.133-.392a42.654 42.654 0 0 1-10.163-3.007 44.927 44.927 0 0 1-9.532-5.66C6.033 72.015.294 58.174 1.714 44.174a.754.754 0 0 0-.669-.83.763.763 0 0 0-.826.672C-1.246 58.535 4.711 72.89 15.768 81.48a46.435 46.435 0 0 0 9.854 5.847 44.516 44.516 0 0 0 10.524 3.113 42.345 42.345 0 0 0 10.5.4c3.38-.294 6.7-1.004 9.856-2.1a39.122 39.122 0 0 0 8.668-4.284 37.867 37.867 0 0 0 7.06-6.021 36.092 36.092 0 0 0 5.153-7.268 34.958 34.958 0 0 0 3.095-7.97 33.306 33.306 0 0 0 1.014-8.138c0-2.652-.323-5.273-.954-7.804a30.579 30.579 0 0 0-2.712-7.026 29.11 29.11 0 0 0-4.16-5.893 27.768 27.768 0 0 0-5.244-4.496 26.8 26.8 0 0 0-5.926-2.946 25.52 25.52 0 0 0-6.197-1.338 24.325 24.325 0 0 0-6.07.22 23.734 23.734 0 0 0-5.595 1.639 22.699 22.699 0 0 0-4.822 2.84 21.616 21.616 0 0 0-3.816 3.786 21.073 21.073 0 0 0-2.667 4.42 20.467 20.467 0 0 0-1.45 4.744 19.438 19.438 0 0 0-.24 4.752c.113 1.534.413 3.038.887 4.48a18.183 18.183 0 0 0 1.87 3.96 17.034 17.034 0 0 0 2.666 3.24c.984.93 2.074 1.73 3.238 2.38a15.336 15.336 0 0 0 3.568 1.451c1.201.325 2.433.491 3.658.506a14.117 14.117 0 0 0 3.522-.393 13.71 13.71 0 0 0 3.185-1.2 13.37 13.37 0 0 0 2.69-1.867 12.84 12.84 0 0 0 2.065-2.372 12.14 12.14 0 0 0 2.013-5.538 11.59 11.59 0 0 0-.068-2.796 11.149 11.149 0 0 0-.713-2.583c-.33-.801-.759-1.557-1.27-2.237a10.384 10.384 0 0 0-1.705-1.79 9.825 9.825 0 0 0-2.005-1.262 9.031 9.031 0 0 0-4.35-.831 8.607 8.607 0 0 0-2.065.385 8.287 8.287 0 0 0-1.833.854 7.847 7.847 0 0 0-2.636 2.735 7.185 7.185 0 0 0-.691 1.67 7.077 7.077 0 0 0-.256 1.722 6.532 6.532 0 0 0 .166 1.67c.12.529.3 1.042.54 1.518a6 6 0 0 0 .864 1.285c.33.377.699.718 1.105.997.398.28.818.499 1.269.665.435.166.886.272 1.337.325.443.045.886.045 1.33-.015.428-.06.84-.166 1.231-.333.308-.128.601-.287.872-.468a5.86 5.86 0 0 1-.639.733 6.061 6.061 0 0 1-1.224.906 6.22 6.22 0 0 1-1.48.605 6.716 6.716 0 0 1-1.66.234 7.22 7.22 0 0 1-1.75-.189 7.61 7.61 0 0 1-3.32-1.745 8.103 8.103 0 0 1-1.337-1.526 8.839 8.839 0 0 1-.97-1.897 9.255 9.255 0 0 1-.502-2.176 9.41 9.41 0 0 1 .045-2.342c.112-.808.33-1.601.646-2.372.323-.786.743-1.541 1.262-2.244a10.768 10.768 0 0 1 1.847-1.95 11.086 11.086 0 0 1 2.374-1.502 11.88 11.88 0 0 1 2.794-.915 12.261 12.261 0 0 1 3.072-.204 13.09 13.09 0 0 1 3.17.582c1.067.333 2.096.809 3.065 1.405.991.612 1.923 1.36 2.749 2.214a15.123 15.123 0 0 1 2.23 2.962c.64 1.11 1.15 2.319 1.51 3.573.369 1.292.579 2.645.617 4.012a17.154 17.154 0 0 1-.399 4.23 18.097 18.097 0 0 1-1.48 4.194 18.493 18.493 0 0 1-2.568 3.868 19.503 19.503 0 0 1-3.59 3.264 20.456 20.456 0 0 1-4.47 2.38 21.136 21.136 0 0 1-5.138 1.262 22.57 22.57 0 0 1-5.528-.038 23.53 23.53 0 0 1-5.596-1.466 24.327 24.327 0 0 1-5.303-2.931 25.652 25.652 0 0 1-4.627-4.33 27.194 27.194 0 0 1-3.59-5.583 28.269 28.269 0 0 1-2.216-6.58 29.465 29.465 0 0 1-.571-7.238 31.24 31.24 0 0 1 1.262-7.487 32.443 32.443 0 0 1 3.185-7.26c.518-.877 13.01-21.344 39.224-16.244 28.941 5.636 35.28 31.104 35.28 40.443 0 .415.339.755.752.755s.751-.34.751-.755c0-9.686-6.557-36.091-36.498-41.924l-.015.008Z"/></svg>
